docs/images/h2o-plus-typography-headers.e92ab0b2b666accc5ed3599440af4260.svg

<svg width="211" height="194" viewBox="0 0 211 194" fill="none" xmlns="http://www.w3.org/2000/svg">
<path fill-rule="evenodd" clip-rule="evenodd" d="M9.27844 48.0664V27.1882H17.6668V48.0664H25.5468V0.960205H17.6668V20.1418H9.27844V0.960205H1.39844V48.0664H9.27844Z" fill="#216D98"/>
<path fill-rule="evenodd" clip-rule="evenodd" d="M55.1603 48.0664V41.02H41.0526V27.1882H51.2202V20.1418H41.0526V8.00643H54.2707V0.960205H33.1726V48.0664H55.1603Z" fill="#216D98"/>
<path fill-rule="evenodd" clip-rule="evenodd" d="M71.6196 10.3546H71.7465L74.8604 30.581H68.5057L71.6196 10.3546ZM67.3618 37.6274H76.0043L77.4025 48.0664H85.0282L76.5762 0.960205H66.7898L58.3379 48.0664H65.9636L67.3618 37.6274Z" fill="#216D98"/>
<path fill-rule="evenodd" clip-rule="evenodd" d="M97.4835 7.61447H100.216C104.41 7.61447 105.872 9.24613 105.872 14.2046V34.8218C105.872 39.7804 104.41 41.4116 100.216 41.4116H97.4835V7.61447ZM89.6035 48.0664H101.296C109.431 48.0664 113.752 43.4994 113.752 33.8432V15.1832C113.752 5.52704 109.431 0.960205 101.296 0.960205H89.6035V48.0664Z" fill="#216D98"/>
<path fill-rule="evenodd" clip-rule="evenodd" d="M143.366 48.0664V41.02H129.258V27.1882H139.426V20.1418H129.258V8.00643H142.476V0.960205H121.378V48.0664H143.366Z" fill="#216D98"/>
<path fill-rule="evenodd" clip-rule="evenodd" d="M157.473 7.61447H160.269C164.527 7.61447 166.116 9.24613 166.116 14.857C166.116 20.4681 164.527 22.0993 160.269 22.0993H157.473V7.61447ZM157.473 28.7541C158.871 28.7541 160.524 28.6888 161.54 28.5584L167.133 48.0664H175.14L168.467 26.7315C171.136 25.4918 173.996 22.4254 173.996 14.857C173.996 4.80874 169.484 0.960205 160.651 0.960205H149.593V48.0664H157.473V28.7541Z" fill="#216D98"/>
<path fill-rule="evenodd" clip-rule="evenodd" d="M202.911 48.0665H210.028V0.307617H206.024C203.419 2.59194 200.178 4.54811 196.682 6.37485V10.7468H202.911V48.0665Z" fill="#216D98"/>
<path fill-rule="evenodd" clip-rule="evenodd" d="M1.39844 84.3589V124.919H5.66632V105.594H17.2662V124.919H21.5341V84.3589H17.2662V101.886H5.66632V84.3589H1.39844Z" fill="#216D98"/>
<path fill-rule="evenodd" clip-rule="evenodd" d="M28.7568 84.3589V124.919H47.4698V121.211H33.0247V105.594H43.2019V101.886H33.0247V88.0665H46.8133V84.3589H28.7568Z" fill="#216D98"/>
<path fill-rule="evenodd" clip-rule="evenodd" d="M61.532 87.3925H61.6414L66.0189 109.189H57.1548L61.532 87.3925ZM58.632 84.3589L49.9321 124.919H54.2L56.5528 112.897H66.6206L68.9734 124.919H73.2413L64.5415 84.3589H58.632Z" fill="#216D98"/>
<path fill-rule="evenodd" clip-rule="evenodd" d="M81.6129 88.0665H83.911C90.1486 88.0665 93.76 90.763 93.76 104.639C93.76 118.514 90.1486 121.211 83.911 121.211H81.6129V88.0665ZM77.345 124.919H84.677C92.994 124.919 98.0279 120.2 98.0279 104.639C98.0279 89.0778 92.994 84.3589 84.677 84.3589H77.345V124.919Z" fill="#216D98"/>
<path fill-rule="evenodd" clip-rule="evenodd" d="M104.703 84.3589V124.919H123.416V121.211H108.971V105.594H119.148V101.886H108.971V88.0665H122.76V84.3589H104.703Z" fill="#216D98"/>
<path fill-rule="evenodd" clip-rule="evenodd" d="M133.265 88.0665H136.986C143.115 88.0665 145.084 90.5384 145.084 95.0887C145.084 99.6391 143.115 102.111 136.986 102.111H133.265V88.0665ZM128.998 124.919H133.265V105.931L138.846 105.706L145.194 124.919H149.68L143.005 104.807C147.382 103.234 149.352 99.4143 149.352 94.8639C149.352 88.179 144.865 84.3589 138.518 84.3589H128.998V124.919Z" fill="#216D98"/>
<path fill-rule="evenodd" clip-rule="evenodd" d="M186.122 124.919V121.548H171.129C177.039 107.392 185.902 104.246 185.902 94.1339C185.902 87.3927 182.292 83.7974 177.094 83.7974C172.333 83.7974 168.284 86.4937 167.846 95.7069H171.458C171.786 89.6396 174.084 87.1679 177.203 87.1679C179.884 87.1679 181.964 89.3025 181.964 93.572C181.964 102.785 171.02 109.526 167.518 121.548V124.919H186.122Z" fill="#216D98"/>
<path fill-rule="evenodd" clip-rule="evenodd" d="M1.39844 160.076V192.317H4.7909V176.956H14.0116V192.317H17.404V160.076H14.0116V174.009H4.7909V160.076H1.39844Z" fill="#216D98"/>
<path fill-rule="evenodd" clip-rule="evenodd" d="M23.1453 160.076V192.317H38.0201V189.37H26.5377V176.956H34.6276V174.009H26.5377V163.024H37.4982V160.076H23.1453Z" fill="#216D98"/>
<path fill-rule="evenodd" clip-rule="evenodd" d="M49.1979 162.488H49.285L52.7644 179.814H45.7185L49.1979 162.488ZM46.8927 160.076L39.9773 192.317H43.3698L45.2401 182.761H53.2428L55.1131 192.317H58.5056L51.5902 160.076H46.8927Z" fill="#216D98"/>
<path fill-rule="evenodd" clip-rule="evenodd" d="M65.1598 163.024H66.9866C71.9449 163.024 74.8155 165.167 74.8155 176.197C74.8155 187.226 71.9449 189.37 66.9866 189.37H65.1598V163.024ZM61.7673 192.317H67.5955C74.2064 192.317 78.208 188.566 78.208 176.197C78.208 163.827 74.2064 160.076 67.5955 160.076H61.7673V192.317Z" fill="#216D98"/>
<path fill-rule="evenodd" clip-rule="evenodd" d="M83.5142 160.076V192.317H98.389V189.37H86.9066V176.956H94.9965V174.009H86.9066V163.024H97.8671V160.076H83.5142Z" fill="#216D98"/>
<path fill-rule="evenodd" clip-rule="evenodd" d="M106.218 163.024H109.176C114.047 163.024 115.613 164.988 115.613 168.605C115.613 172.222 114.047 174.187 109.176 174.187H106.218V163.024ZM102.825 192.317H106.218V177.224L110.654 177.045L115.7 192.317H119.266L113.96 176.331C117.439 175.08 119.005 172.044 119.005 168.427C119.005 163.113 115.439 160.076 110.393 160.076H102.825V192.317Z" fill="#216D98"/>
<path fill-rule="evenodd" clip-rule="evenodd" d="M136.837 166.864C136.924 164.631 137.881 162.309 140.578 162.309C142.752 162.309 144.231 163.827 144.231 167.668C144.231 172.669 142.317 173.83 137.62 173.83V176.509C142.578 176.509 144.753 178.027 144.753 183.341C144.753 187.762 142.665 190.084 140.578 190.084C137.794 190.084 136.315 188.119 136.054 184.636H133.184C133.227 189.325 136.054 192.763 140.23 192.763C144.144 192.763 147.885 189.816 147.885 183.207C147.885 179.769 146.797 176.375 143.274 175.17V175.08C145.536 174.634 147.363 172.044 147.363 167.489C147.363 162.13 143.883 159.63 140.36 159.63C136.315 159.63 134.315 162.711 133.967 166.507L136.837 166.864Z" fill="#216D98"/>
<path d="M1.39844 136.558H186.503" stroke="#216D98" stroke-linecap="square"/>
</svg>

<svg width="211" height="194" fill="none" xmlns="http://www.w3.org/2000/svg"><path fill-rule="evenodd" clip-rule="evenodd" d="M9.278 48.066V27.188h8.389v20.878h7.88V.96h-7.88v19.182H9.278V.96h-7.88v47.106h7.88zm45.882 0V41.02H41.053V27.188H51.22v-7.046H41.053V8.006H54.27V.96H33.173v47.106H55.16zm16.46-37.711h.126L74.86 30.58h-6.354l3.114-20.226zm-4.258 27.272h8.642l1.398 10.44h7.626L76.576.96H66.79l-8.452 47.106h7.626l1.398-10.439zM97.484 7.614h2.732c4.194 0 5.656 1.632 5.656 6.59v20.618c0 4.958-1.462 6.59-5.656 6.59h-2.732V7.614zm-7.88 40.452h11.692c8.135 0 12.456-4.567 12.456-14.223v-18.66c0-9.656-4.321-14.223-12.456-14.223H89.603v47.106zm53.762 0V41.02h-14.108V27.188h10.168v-7.046h-10.168V8.006h13.218V.96h-21.098v47.106h21.988zm14.107-40.452h2.796c4.258 0 5.847 1.632 5.847 7.243 0 5.611-1.589 7.242-5.847 7.242h-2.796V7.614zm0 21.14c1.398 0 3.051-.065 4.067-.196l5.593 19.508h8.007l-6.673-21.335c2.669-1.24 5.529-4.306 5.529-11.874 0-10.048-4.512-13.897-13.345-13.897h-11.058v47.106h7.88V28.754zm45.438 19.312h7.117V.308h-4.004c-2.605 2.284-5.846 4.24-9.342 6.067v4.372h6.229v37.32zM1.398 84.359v40.56h4.268v-19.325h11.6v19.325h4.268v-40.56h-4.268v17.527h-11.6V84.359H1.398zm27.359 0v40.56H47.47v-3.708H33.025v-15.617h10.177v-3.708H33.025v-13.82h13.788V84.36H28.757zm32.775 3.033h.11l4.377 21.797h-8.864l4.377-21.796zm-2.9-3.033l-8.7 40.56H54.2l2.353-12.022H66.62l2.352 12.022h4.268l-8.7-40.56h-5.909zm22.981 3.708h2.298c6.238 0 9.849 2.696 9.849 16.572 0 13.875-3.611 16.572-9.849 16.572h-2.298V88.067zm-4.268 36.852h7.332c8.317 0 13.35-4.719 13.35-20.28s-5.033-20.28-13.35-20.28h-7.332v40.56zm27.358-40.56v40.56h18.713v-3.708h-14.445v-15.617h10.177v-3.708h-10.177v-13.82h13.789V84.36h-18.057zm28.562 3.708h3.721c6.129 0 8.098 2.471 8.098 7.022 0 4.55-1.969 7.022-8.098 7.022h-3.721V88.067zm-4.267 36.852h4.267v-18.988l5.581-.225 6.348 19.213h4.486l-6.675-20.112c4.377-1.573 6.347-5.393 6.347-9.943 0-6.685-4.487-10.505-10.834-10.505h-9.52v40.56zm57.124 0v-3.371h-14.993c5.91-14.156 14.773-17.302 14.773-27.414 0-6.741-3.61-10.337-8.808-10.337-4.761 0-8.81 2.697-9.248 11.91h3.612c.328-6.067 2.626-8.54 5.745-8.54 2.681 0 4.761 2.135 4.761 6.405 0 9.213-10.944 15.954-14.446 27.976v3.371h18.604zM1.398 160.076v32.241h3.393v-15.361h9.22v15.361h3.393v-32.241h-3.392v13.933H4.79v-13.933H1.398zm21.747 0v32.241H38.02v-2.947H26.538v-12.414h8.09v-2.947h-8.09v-10.985h10.96v-2.948H23.145zm26.053 2.412h.087l3.48 17.326h-7.047l3.48-17.326zm-2.305-2.412l-6.916 32.241h3.393l1.87-9.556h8.003l1.87 9.556h3.393l-6.916-32.241h-4.697zm18.267 2.948h1.827c4.958 0 7.829 2.143 7.829 13.173 0 11.029-2.871 13.173-7.83 13.173H65.16v-26.346zm-3.393 29.293h5.828c6.611 0 10.613-3.751 10.613-16.12 0-12.37-4.002-16.121-10.612-16.121h-5.829v32.241zm21.747-32.241v32.241H98.39v-2.947H86.907v-12.414h8.09v-2.947h-8.09v-10.985h10.96v-2.948H83.514zm22.704 2.948h2.958c4.871 0 6.437 1.964 6.437 5.581 0 3.617-1.566 5.582-6.437 5.582h-2.958v-11.163zm-3.393 29.293h3.393v-15.093l4.436-.179 5.046 15.272h3.566l-5.306-15.986c3.479-1.251 5.045-4.287 5.045-7.904 0-5.314-3.566-8.351-8.612-8.351h-7.568v32.241zm34.012-25.453c.087-2.233 1.044-4.555 3.741-4.555 2.174 0 3.653 1.518 3.653 5.359 0 5.001-1.914 6.162-6.611 6.162v2.679c4.958 0 7.133 1.518 7.133 6.832 0 4.421-2.088 6.743-4.175 6.743-2.784 0-4.263-1.965-4.524-5.448h-2.87c.043 4.689 2.87 8.127 7.046 8.127 3.914 0 7.655-2.947 7.655-9.556 0-3.438-1.088-6.832-4.611-8.037v-.09c2.262-.446 4.089-3.036 4.089-7.591 0-5.359-3.48-7.859-7.003-7.859-4.045 0-6.045 3.081-6.393 6.877l2.87.357z" fill="#216D98"/><path d="M1.398 136.558h185.105" stroke="#216D98" stroke-linecap="square"/></svg>
